app/assets/images/heroicons/solid/exclamation-triangle.svg

<svg width="24" height="24" viewBox="0 0 24 24" fill="none" xmlns="http://www.w3.org/2000/svg">
<path fill-rule="evenodd" clip-rule="evenodd" d="M9.40123 3.0034C10.5557 1.00229 13.4439 1.00229 14.5983 3.0034L21.9527 15.7509C23.1065 17.7509 21.6631 20.2501 19.3541 20.2501H4.64546C2.33649 20.2501 0.893061 17.7509 2.04691 15.7509L9.40123 3.0034ZM12 8.25C12.4142 8.25 12.75 8.58579 12.75 9V12.75C12.75 13.1642 12.4142 13.5 12 13.5C11.5858 13.5 11.25 13.1642 11.25 12.75V9C11.25 8.58579 11.5858 8.25 12 8.25ZM12 16.5C12.4142 16.5 12.75 16.1642 12.75 15.75C12.75 15.3358 12.4142 15 12 15C11.5858 15 11.25 15.3358 11.25 15.75C11.25 16.1642 11.5858 16.5 12 16.5Z" fill="#0F172A"/>
</svg>

<svg xmlns="http://www.w3.org/2000/svg" viewBox="0 0 24 24" fill="currentColor" aria-hidden="true" data-slot="icon">
  <path fill-rule="evenodd" d="M9.401 3.003c1.155-2 4.043-2 5.197 0l7.355 12.748c1.154 2-.29 4.5-2.599 4.5H4.645c-2.309 0-3.752-2.5-2.598-4.5L9.4 3.003ZM12 8.25a.75.75 0 0 1 .75.75v3.75a.75.75 0 0 1-1.5 0V9a.75.75 0 0 1 .75-.75Zm0 8.25a.75.75 0 1 0 0-1.5.75.75 0 0 0 0 1.5Z" clip-rule="evenodd"/>
</svg>
